X: 215
T:Where The Shannon Rises
M:C
L:1/8
C:Ed Reavy
S:The Collected Compositions of Ed Reavy
R:Reel
N:Ed was proud to recall that the majestic
N:Shannon rose in his county. For this reason he called his first book
N:of tunes, "Where the Shannon Rises".
Z:Joseph Reavy
K:D
d||:DEFA defe| (3dcB (3cBA BFFG|AGFE DEFA|dBAF EDCE|DEFA defe|
(3dcB (3cBA BFFG|AGFE DEFA|1 (3Bcd eg fddF:|2
(3Bcd (eg fdde||fgaf dcdf|eBfB gBfe|defg agfa|gfeg fedc|defg
 afdf|edcd efge|(3f^ga ec dcdA|(3Bcd AF EDCE||

